X: 0
T: Love Divine
Z: Sir John Stainer
Z: Copyright © 2006 by Douglas D. Anderson
Z: Released to the Public Domain
L: 1/4
M: none
Q: 1/4=300
V: P1 name="Soprano"
%%MIDI program 1 19
V: P2 name="Alto"
%%MIDI program 2 60
V: P3 name="Tenor"
%%MIDI program 3 57
V: P4 name="Bass"
%%MIDI program 4 58
K: G
[V: P1]  G2 G2 | (G A) B2 A2 G2 | F2 D2 | G2 d2 | d2 ^c2 d2 B2 | A4 | A2 A2 | (A B) c2 B2 A2 | G2 E2 | B2 A2 | G2 D2 E2 F2 | G4 | G2 G2 | (G A) B2 A2 G2 | F2 D2 | G2 d2 | d2 ^c2 d2 B2 | A4 | A2 A2 | (A B) c2 B2 A2 | G2 E2 | B2 A2 | G2 D2 E2 F2 | G4|]
[V: P2]  D2 ^D2 | E2 B,2 E2 E2 | D2 D2 | D2 G2 | G2 G2 G2 G2 | (G2 F2) | F2 =F2 | E2 E2 ^D2 F2 | E2 E2 | E2 E2 | D2 D2 D2 C2 | B,4 | D2 ^D2 | E2 B,2 E2 E2 | D2 D2 | D2 G2 | G2 G2 G2 G2 | (G2 F2) | F2 =F2 | E2 E2 ^D2 F2 | E2 E2 | E2 E2 | D2 D2 D2 C2 | B,4|]
[V: P3]  B,2 B,2 | B,2 G,2 A,2 (C B,) | A,2 F,2 | G,2 (B, D) | D2 E2 D2 D2 | D4 | D2 A,2 | A,2 (A, G,) F,2 B,2 | B,2 G,2 | G,2 C2 | C2 B,2 B,2 A,2 | G,4 | B,2 B,2 | B,2 G,2 A,2 (C B,) | A,2 F,2 | G,2 (B, D) | D2 E2 D2 D2 | D4 | D2 A,2 | A,2 (A, G,) F,2 B,2 | B,2 G,2 | G,2 C2 | C2 B,2 B,2 A,2 | G,4|]
[V: P4]  G,2 F,2 | E,2 (E, D,) C,2 A,,2 | D,2 (D, C,) | B,,2 B,2 | B,2 ^A,2 B,2 G,2 | D,4 | D,2 D,2 | C,2 A,,2 B,,2 ^D,2 | E,2 (E, D,) | C,2 C,2 | D,2 D,2 D,2 D,2 | G,,4 | G,2 F,2 | E,2 (E, D,) C,2 A,,2 | D,2 (D, C,) | B,,2 B,2 | B,2 ^A,2 B,2 G,2 | D,4 | D,2 D,2 | C,2 A,,2 B,,2 ^D,2 | E,2 (E, D,) | C,2 C,2 | D,2 D,2 D,2 D,2 | G,,4|]

